X: 71
T:Maids of Mount Kisco
R:reel
Z:Mount Kisco is in Ne
M:C|
L:1/8
Q:1/2=112
E:8
K:Ador
|:G|EA~A2 BGAG|EA~A2 BGAG|EG~G2 BG~G2|EG~G2 EGDG|
EA~A2 BGAG|EA~A2 BABd|efg2 af (3.g.f.e|dBGB A3:|
|:G|~A3B dBAB|G2BG DGBG|~A3B dBAB|efge dBGB|
~A3B dBAB|G2BG DGBG|~A3B dBAB|efge d2 (3Bcd||
ea~a2 bgag|e2dB GABd|eaab ~a3g|edef g3b|
~a3f ~g3e|dedB GBd2|eA~A2 efge|dBGB A3:|
